X:1
T:Veni Barbara sponsa Christi
T:Ignatio Donati
T:Source : Primo libro di Motetti a voce sola---Venetia---A.Vincenti---1634. Editor : André Vierendeels (01/12/16).
T:Notes : Original clefs : C1, F4 Editorial accidentals above the staff m36 in S : first "C" notated as quarter in original print "Canto o Tenore" Figures in BC are notated in original print "Barbara" or "N"
T:-natural
T:Veni Barbara sponsa Christi
T:©
T:©
T:©
T:©
T:©
T:©
T:©
C:Ignatio Donati
Z:©
%%score 1 2
L:1/8
Q:1/4=99
M:4/4
K:F
V:1 treble nm="Soprano" snm="S"
V:2 bass nm="MusicXML Part"
V:1
 z/ F/G/A/ B/A/B/c/ d4- | d4 A4 | z/ A/B/c/ d/c/d/e/ f4- | f4 d4 | c3 c c4 | %5
w: Ve- * * * * * * *|* ni,||* ni,|Bar- ba- ra,|
 B/A/G/F/ G/A/B/G/ d/c/B/A/ B/c/d/B/ | c/d/e/d/ c/B/A/G/ c/d/e/d/ c/B/A/G/ | A3 A A4 | G8 | %9
w: spon- * * * * * * * * * * * * * * *||* sa Chri-|sti,|
 z/ E/F/G/ A/B/c/d/ c/A/B/c/ d/e/f/g/ | f2 _e2 d4- | d2 c2 B/A/B/c/ d/^F/G/A/ | %12
w: ac- * * * * * * * * * * * * * *|* ci- pe|_ co- ro- * * * * * * *|
 B/e/d/c/ d/A/B/c/ d/c/B/c/ d/e/f/B/ | A8 | B4 z2 d2 | cB cd BA Bc | A4 z2 f2 | _ed ef dc de | %18
w: ||nam, quam|ti- * bi _ Do- * mi- *|nus, quam|ti- * bi _ Do- * mi- *|
 c4 c2 d2 | _e/d/c/d/ e/B/c/d/ e/G/A/B/ c/d/e/c/ | dd_ef d4 | c4 z2 GA | %22
w: nus prae- pa-|ra- * * * * * * * * * * * * * * *|* vit in ae- ter-|num, prae- pa-|
 B/A/G/A/ B/^F/G/A/ B/A/G/A/ B/c/d/e/ | f2 d2 e2 f/e/f/d/ | e8 | d8 | z4 z2 d2 | c2 cd BA BG | %28
w: ra- * * * * * * * * * * * * * * *|* vit in ae- * * *|ter-|num,|pro|cu- ius a- mo- * re _|
 A2 AB c4- | c2 AG G4 | F4 z2 f2 | _e2 ef dc dB | c2 cd _e4- | e2 dc c4 | B4 z4 | z2 FG A2 B2 | %36
w: san- gui- nem tu-|* um fu- di-|sti, pro|cu- ius a- mo- * re _|san- gui- nem tu-|* um fu- di-|sti,|et cum An- ge-|
 c2 GA B2 c2 | dcde fegf | e4 d4 | z2 AB c2 G2 | B2 de f2 c2 | _e4 z GGA | BAcB A4 | G4 z2 z B | %44
w: lis, et cum An ge-|lis in Pa- ra- di- sum in- tro-|i- sti,|et cum An- ge-|lis, et cum An- ge-|lis in Pa- ra-|di- sum in- tro- i-|sti, in|
"^b" c/B/c/d/ e/d/c/B/ c/G/A/B/ c/d/e/c/ | d/c/B/A/ G/^F/G/A/ B/F/G/A/ B/A/B/c/ | d6 A2 | %47
w: Pa- * * * * * * * * * * * * * * *||* ra-|
 B2 A2 c2 Bc/d/ | A8 | G8 |] %50
w: di- sum in- tro- * *|i-|sti.|
V:2
"^BC" G,8 |"^#" D,8 |"^-natural" D,8 | B,,8 | F,8 | G,8 | C,4 _E,4 |"^#""^#" D,2 C,2 D,4 | %8
"^-natural" G,,4 C,4 | F,,8 | F,,4 B,,4 | B,,2 A,,2 G,,4 | G,,4 B,,4 | F,8 | B,,4 B,,4 | F,4 G,4 | %16
"^#""^-natural" D,4 D,4 |"^b" C,4 B,,4 | F,8 |"^b" C,8 |"^-natural" G,8 | C,4 C,4 | G,,8 | %23
 D,4 ^C,2 D,2 |"^-natural""^#" A,,2 G,,2 A,,4 |"^#" D,4 B,,4 | C,4 D,4 | E,2 F,2 G,2 _E,2 | %28
 D,4 C,2 A,,B,, | C,8 | F,,4 F,4 | G,2 A,2 B,2 G,2 | F,4 _E,4 | F,8 | B,,2 B,,C, D,2 E,2 | %35
 F,4 D,4 | C,4 G,,2 A,,2 | B,,4 A,,2 G,,2 |"^#" A,,4 D,2 D,E, | F,4 C,4 |"^b" G,,4 D,2 F,2 | %41
"^b" C,2 C,D, _E,4 |"^#" D,2 C,2 D,4 |"^-natural""^-natural" G,,4 G,4 |"^b""^b" C,4 C,4 | G,,8 | %46
"^#" G,,4 D,4 |"^#" D,4 C,4 |"^#" D,8 | G,,8 |] %50

